img/icones/whatsapp-icon.svg

<svg width="40" height="40" viewBox="0 0 40 40" fill="none" xmlns="http://www.w3.org/2000/svg">
<g clip-path="url(#clip0_27_59)">
<rect width="40" height="40" rx="10" fill="black"/>
<path fill-rule="evenodd" clip-rule="evenodd" d="M10.9449 23.4566C10.482 22.2831 10.2278 21.0046 10.2278 19.6667C10.2278 13.9597 14.8541 9.33333 20.5611 9.33333C26.268 9.33333 30.8944 13.9597 30.8944 19.6667C30.8944 25.3736 26.268 30 20.5611 30C19.434 30 18.3491 29.8196 17.3337 29.486C16.4861 29.2076 15.6869 28.8225 14.952 28.3466C14.9051 28.3162 14.8585 28.2855 14.8121 28.2544C14.7915 28.2406 14.771 28.2267 14.7505 28.2127L10.7278 29.5L12.1994 25.7391C12.1936 25.7312 12.1879 25.7233 12.1821 25.7153C12.16 25.6847 12.1379 25.6539 12.1161 25.623C11.6441 24.955 11.2494 24.2285 10.9449 23.4566ZM9.96003 25.9735C8.85981 24.1281 8.22775 21.9712 8.22775 19.6667C8.22775 12.8552 13.7496 7.33333 20.5611 7.33333C27.3726 7.33333 32.8944 12.8552 32.8944 19.6667C32.8944 26.4782 27.3726 32 20.5611 32C18.3499 32 16.2747 31.4181 14.4801 30.3991L7.33334 32.6861L9.96003 25.9735Z" fill="white"/>
<path d="M14.3944 17C15.9944 22.8667 21.1722 25 23.5611 25.3333C24.0611 25.4444 25.2611 25.4 26.0611 24.3333C26.8611 23.2667 26.2833 22.5556 25.8944 22.3333L25.0611 21.8333C23.8611 21.0333 23.45 21.1667 23.3944 21.3333C23.1722 21.6667 22.6611 22.4 22.3944 22.6667C22.1278 22.9333 21.6166 22.7778 21.3944 22.6667C19.7944 21.6 18.2833 20 17.7278 19.3333C17.1944 18.8 17.1722 18.5556 17.2278 18.5L18.0611 18C18.4611 17.7333 18.45 17.2222 18.3944 17C17.8611 14.6 16.95 14.1111 16.5611 14.1667C14.5611 14.1667 14.2833 16.0556 14.3944 17Z" fill="white"/>
</g>
<defs>
<clipPath id="clip0_27_59">
<rect width="40" height="40" fill="white"/>
</clipPath>
</defs>
</svg>

<svg width="40" height="40" fill="none" xmlns="http://www.w3.org/2000/svg"><g clip-path="url(#a)"><rect width="40" height="40" rx="10" fill="#000"/><path fill-rule="evenodd" clip-rule="evenodd" d="M10.945 23.457a10.306 10.306 0 0 1-.717-3.79c0-5.707 4.626-10.334 10.333-10.334s10.333 4.627 10.333 10.334S26.268 30 20.561 30a10.287 10.287 0 0 1-5.81-1.787L10.728 29.5l1.471-3.76-.017-.025a10.255 10.255 0 0 1-1.237-2.258Zm-.985 2.517a12.276 12.276 0 0 1-1.732-6.307c0-6.812 5.522-12.334 12.333-12.334 6.812 0 12.333 5.522 12.333 12.334C32.894 26.478 27.373 32 20.561 32c-2.211 0-4.286-.582-6.08-1.6l-7.148 2.286 2.627-6.712Z" fill="#fff"/><path d="M14.394 17c1.6 5.867 6.778 8 9.167 8.333.5.111 1.7.067 2.5-1 .8-1.066.222-1.777-.167-2l-.833-.5c-1.2-.8-1.611-.666-1.667-.5-.222.334-.733 1.067-1 1.334-.266.266-.777.11-1 0-1.6-1.067-3.11-2.667-3.666-3.334-.534-.533-.556-.777-.5-.833l.833-.5c.4-.267.389-.778.333-1-.533-2.4-1.444-2.889-1.833-2.833-2 0-2.278 1.889-2.167 2.833Z" fill="#fff"/></g><defs><clipPath id="a"><path fill="#fff" d="M0 0h40v40H0z"/></clipPath></defs></svg>
